src/Pure/16/symbolic/apps/org.gnome.Settings-wellbeing-symbolic.svg

<?xml version="1.0" encoding="UTF-8" standalone="no"?>
<svg
   width="16px"
   height="16px"
   version="1.1"
   viewBox="0 0 16 16"
   id="svg2"
   sodipodi:docname="org.gnome.Settings-wellbeing-symbolic.svg"
   inkscape:version="1.4.2 (ebf0e940d0, 2025-05-08)"
   xmlns:inkscape="http://www.inkscape.org/namespaces/inkscape"
   xmlns:sodipodi="http://sodipodi.sourceforge.net/DTD/sodipodi-0.dtd"
   xmlns="http://www.w3.org/2000/svg"
   xmlns:svg="http://www.w3.org/2000/svg">
  <defs
     id="defs2">
    <style
       id="current-color-scheme"
       type="text/css">
        .ColorScheme-Text { color:#363636; }
     </style>
  </defs>
  <sodipodi:namedview
     id="namedview2"
     pagecolor="#ffffff"
     bordercolor="#000000"
     borderopacity="0.25"
     inkscape:showpageshadow="2"
     inkscape:pageopacity="0.0"
     inkscape:pagecheckerboard="0"
     inkscape:deskcolor="#d1d1d1"
     inkscape:zoom="49.75"
     inkscape:cx="7.9899497"
     inkscape:cy="8"
     inkscape:window-width="1920"
     inkscape:window-height="1011"
     inkscape:window-x="0"
     inkscape:window-y="0"
     inkscape:window-maximized="1"
     inkscape:current-layer="svg2" />
  <path
     id="path1"
     style="fill:currentColor"
     class="ColorScheme-Text"
     d="M 8 0 A 3 3 0 0 0 5 3 A 3 3 0 0 0 8 6 A 3 3 0 0 0 11 3 A 3 3 0 0 0 8 0 z M 8 1 A 2 2 0 0 1 10 3 A 2 2 0 0 1 8 5 A 2 2 0 0 1 6 3 A 2 2 0 0 1 8 1 z M 5 6 C 2.8027 6 1 7.8027 1 10 C 1 11.0988 1.449325 12.105625 2.171875 12.828125 C 2.472875 13.129125 2.7691544 13.295816 3.1777344 13.541016 C 3.5862744 13.786216 4.0746469 14.057457 4.5917969 14.335938 C 5.6259969 14.892888 6.7743969 15.480313 7.5292969 15.882812 A 1.0001 1.0001 0 0 0 8.4707031 15.882812 C 9.2256231 15.480363 10.374003 14.892918 11.408203 14.335938 C 11.925323 14.057457 12.413666 13.786216 12.822266 13.541016 C 13.230806 13.295816 13.527085 13.129125 13.828125 12.828125 C 14.550655 12.105595 15 11.0988 15 10 C 15 7.8027 13.1973 6 11 6 C 10.24281 6 9.0625 6.3841819 8 7.2949219 C 6.9375 6.3841619 5.7572 6 5 6 z M 5 7 C 5.82843 7 7.0156469 7.1519106 7.9980469 8.5253906 L 8 10 L 8.0019531 8.5253906 C 8.9843831 7.1518906 10.1716 7 11 7 C 12.6568 7 14 8.3431 14 10 C 14 10.82842 13.663984 11.578194 13.121094 12.121094 C 12.578204 12.663984 9.541 14.1785 8 15 C 6.4591 14.17853 3.4218063 12.663994 2.8789062 12.121094 C 2.3360163 11.578204 2 10.8284 2 10 C 2 8.3431 3.3431 7 5 7 z " />
</svg>

<svg width="16px" height="16px" version="1.1" viewBox="0 0 16 16" xmlns="http://www.w3.org/2000/svg">
 <path d="m5 6c-2.1973 0-4 1.8027-4 4 0 1.0988 0.44935 2.1056 1.1719 2.8281 0.301 0.301 0.59732 0.46769 1.0059 0.71289 0.40854 0.2452 0.89695 0.51644 1.4141 0.79492 1.0342 0.55695 2.1826 1.1444 2.9375 1.5469a1.0001 1.0001 0 0 0 0.94141 0c0.75492-0.40245 1.9033-0.98992 2.9375-1.5469 0.51712-0.27848 1.0055-0.54972 1.4141-0.79492 0.40854-0.2452 0.70486-0.41189 1.0059-0.71289 0.72253-0.72253 1.1719-1.7293 1.1719-2.8281 0-2.1973-1.8027-4-4-4-0.75719 0-1.9375 0.38416-3 1.2949-1.0625-0.91076-2.2428-1.2949-3-1.2949zm0 1c0.82843 0 2.0156 0.15192 2.998 1.5254l0.0019531 1.4746 0.0019531-1.4746c0.98243-1.3735 2.1696-1.5254 2.998-1.5254 1.6568 0 3 1.3431 3 3 0 0.82842-0.33602 1.5782-0.87891 2.1211-0.54289 0.54289-3.5801 2.0574-5.1211 2.8789-1.5409-0.82147-4.5782-2.336-5.1211-2.8789-0.54289-0.54289-0.87891-1.2927-0.87891-2.1211 0-1.6569 1.3431-3 3-3z" color="#000000" fill="#363636" stroke-linecap="round" stroke-linejoin="round" style="-inkscape-stroke:none;paint-order:stroke fill markers"/>
 <path d="m8 0a3 3 0 0 0-3 3 3 3 0 0 0 3 3 3 3 0 0 0 3-3 3 3 0 0 0-3-3zm0 1a2 2 0 0 1 2 2 2 2 0 0 1-2 2 2 2 0 0 1-2-2 2 2 0 0 1 2-2z" fill="#363636" style="paint-order:stroke fill markers"/>
</svg>
